X: 11693
T: Einini
R: waltz
M: 3/4
K: Gmajor
d2|B2 B2 dB|B2 A2 BG|A2 A2 BG|A4 d2|
B2 B2 dB|B2 A2 BA|G2 G2 AF|G6-|G4 d2||
e2 e2 ge|e2 d2 BG|A2 A2 BG|A4 d2|
ed ef ge|e2 d2 BA|G2 G2 AF|G6-|G4||

